source/assets/images/icons/arrow-left.svg

<?xml version="1.0" encoding="UTF-8" standalone="no"?>
<svg width="12px" height="19px" viewBox="0 0 12 19" version="1.1" xmlns="http://www.w3.org/2000/svg" xmlns:xlink="http://www.w3.org/1999/xlink" xmlns:sketch="http://www.bohemiancoding.com/sketch/ns">
    <!-- Generator: Sketch 3.2.2 (9983) - http://www.bohemiancoding.com/sketch -->
    <title>arrow-left</title>
    <desc>Created with Sketch.</desc>
    <defs></defs>
    <g id="assets/icons" stroke="none" stroke-width="1" fill="none" fill-rule="evenodd" sketch:type="MSPage">
        <path d="M3.18198052,8.43933983 L3.18198052,10.5606602 L11.1819805,2.56066017 C11.767767,1.97487373 11.767767,1.02512627 11.1819805,0.439339828 C10.5961941,-0.146446609 9.64644661,-0.146446609 9.06066017,0.439339828 L1.06066017,8.43933983 L1.77635684e-15,9.5 L1.06066017,10.5606602 L9.06066017,18.5606602 C9.64644661,19.1464466 10.5961941,19.1464466 11.1819805,18.5606602 C11.767767,17.9748737 11.767767,17.0251263 11.1819805,16.4393398 L3.18198052,8.43933983 Z" id="arrow-left" fill="#474747" sketch:type="MSShapeGroup"></path>
    </g>
</svg>

<svg width="12" height="19" viewBox="0 0 12 19" xmlns="http://www.w3.org/2000/svg"><title>arrow-left</title><path d="M3.182 8.44v2.12l8-8c.586-.585.586-1.535 0-2.12-.586-.586-1.536-.586-2.12 0l-8 8L0 9.5l1.06 1.06 8 8c.586.586 1.536.586 2.122 0 .586-.585.586-1.535 0-2.12l-8-8z" fill="#474747" fill-rule="evenodd"/></svg>
